X:1
T:Almost Decided
T:Almost Decided
T:Barney E. Warren, pub.1911
T:B. E. W.
T:PUBLIC DOMAIN
T:PUBLIC DOMAIN
C:Barney E. Warren, pub.1911
Z:B. E. W.
Z:PUBLIC DOMAIN
%%score ( 1 2 ) ( 3 4 )
L:1/8
Q:1/8=120
M:6/8
K:F
V:1 treble nm="Treble"
V:2 treble 
V:3 bass nm="Bass"
V:4 bass 
V:1
 [FA] [FA] [FA] [FA]2 [CG] | [CG]3 [CF]3 | [DF] [DF] [DF] [FB]2 [FB] | [FA]6 | %4
w: 1.~Al- most de- cid- ed,|sin- ner,|Will you not come to-|day?|
w: 2.~Al- most de- cid- ed,|shall I|Hard- en my heart a-|gain,|
w: 3.~Al- most de- cid- ed,|shall I|Hope for a bet- ter|time,|
w: 4.~Just as I am, re-|ceive me,|On- ly Thy blood I|plead;|
 [Fc] [Fc] [Fc] [Fc]2 [FB] | [FB]3 [FA]3 | [FA] [EG] [EG] [EG]2 [FA] | [EG]6 | %8
w: Or will you slight the|Sav- ior|Till He be gone a-|way?|
w: Grieve Him a- way for-|ev- er,|Thwart- ing God’s ho- ly|plan,|
w: Wait- ing for more con-|vic- tion,|When on- ly now is|mine?|
w: In Thy kind mer- cy|hide me,|I will be Thine in-|deed;|
 [DF] [DF] [DF] [DF]2 [DF] | [^CA]3 [CA]3 | [DG] [DG] [DG] [EG]2 [Ec] | [Fc]6 | %12
w: Then what a sad con-|di- tion,|Help- less and bound in|sin!|
w: Us- ing my will a-|gainst Him,|Wrong- ing my own poor|soul,|
w: An- gel of mer- cy,|help me,|I can- not long- er|wait;|
w: Save me from sin this|mo- ment,|Take all my guilt a-|way;|
 [Fc] [Fc] [Fc] [Fc]2 [FB] | [FB]3 [FA]3 | [FA] [EG] [EG] [EG]2 [EA] | F6 || %16
w: Oh, will you not take|warn- ing?|Has- ten and come to|1—|
w: When He thus blest me|wise- ly,|Giv- ing me self- con-|trol?|
w: I will make choice of|heav- en,|Ere it shall be too|late.|
w: Speak the glad joys of|par- don,|Deep in my soul to-|day.|
"^Refrain" [B,D]3 [B,F]3 | [A,C]3 [CF]3 | [EG]3 [EA]3 | [CF]6 |] %20
w: Guilt- y|sin- ner,|come to-|day.|
w: ||||
w: ||||
w: ||||
V:2
 x6 | x6 | x6 | x6 | x6 | x6 | x6 | x6 | x6 | x6 | x6 | x6 | x6 | x6 | x6 | F6 || x6 | x6 | x6 | %19
 x6 |] %20
V:3
 [F,C] [F,C] [F,C] [F,C]2 [F,B,] | [F,B,]3 A,3 | [D,A,] [D,A,] [D,A,] [B,,D]2 [B,,D] | [F,C]6 | %4
w: ||||
 [F,A,] [F,A,] [F,A,] [F,A,]2 [F,D] | [F,D]3 [F,C]3 | [C,C] [C,C] [C,C] [C,C]2 [C,C] | [C,C]6 | %8
w: ||||
 [D,A,] [D,A,] [D,A,] [D,A,]2 [D,F,] | [A,,E,]3 [A,,E,]3 | [B,,G,] [B,,G,] [B,,B,] [C,B,]2 [C,B,] | %11
w: |||
 [F,A,]6 | [F,A,] [F,A,] [F,A,] [F,A,]2 [F,D] | [F,D]3 [F,C]3 | [C,C] [C,C] [C,C] [C,B,]2 [C,C] | %15
w: ||||
 [F,,F,A,]6 || [B,,F,]3 [B,,D,]3 | F,3 [F,A,]3 | [C,B,]3 [C,C]3 | [F,,F,A,]6 |] %20
w: 2\-4—|Par- don|all my|sins to-|day.|
V:4
 x6 | z3 (F,2 _E,) | x6 | x6 | x6 | x6 | x6 | x6 | x6 | x6 | x6 | x6 | x6 | x6 | x6 | x6 || x6 | %17
 F,3 z3 | x6 | x6 |] %20

